X: 19
T: O'Sullivan's March
R: jig
M: 6/8
L: 1/8
K: Gmaj
   D | "G" GBA ABd         | "Am" edB A2 G        | "G" GBA B2G | AGG G2       :|
|: g | "Am" e2g e2g        | ege edB              | "G" ded dBd | deB "Em" BAG  |
       "Am" cBc "D/F#" dcd | "Em" e/f/gB "Am" A2G | "G" GBA B2G | AGG G2       :|
|: D | "G" GAB dBA         | GAB B3               | GAB "Em"edB    | "D"dBA "Am"A2 B/A/ |
       "G" GAB dBA         | BAB "Em"g3           | "D"fed "Am"edB | "D" dBA A2        :|
|: B | "G"dBB gBB          | dBB d2 e             | "G"dBB gfg     | "Am" edB A2 B/A/   |
       "G"GAB dBA          | BAB "Em"g3           | "D"fed "Am"edB | "D"dBA A2         :|
       
